packages/icons/raw/imported/DevicesMouse.svg

<svg width="32" height="32" viewBox="0 0 32 32" fill="none" xmlns="http://www.w3.org/2000/svg">
<path d="M13.4999 9.99995L13.8535 10.3535L13.4999 9.99995ZM9.49995 13.9999L9.1464 13.6464H9.1464L9.49995 13.9999ZM22.4999 18.9999L22.8535 19.3535L22.4999 18.9999ZM18.4999 22.9999L18.1464 22.6464L18.4999 22.9999ZM22.4999 9.99996L22.8535 9.64641L22.4999 9.99996ZM9.49995 22.9999L9.8535 22.6464H9.8535L9.49995 22.9999ZM13.1464 9.64639L9.1464 13.6464L9.8535 14.3535L13.8535 10.3535L13.1464 9.64639ZM22.1464 18.6464L18.1464 22.6464L18.8535 23.3535L22.8535 19.3535L22.1464 18.6464ZM22.8535 19.3535C25.534 16.673 25.534 12.327 22.8535 9.64641L22.1464 10.3535C24.4364 12.6435 24.4364 16.3564 22.1464 18.6464L22.8535 19.3535ZM13.8535 10.3535C16.1435 8.06348 19.8564 8.06348 22.1464 10.3535L22.8535 9.64641C20.173 6.96585 15.8269 6.96585 13.1464 9.64639L13.8535 10.3535ZM9.1464 13.6464C6.46585 16.3269 6.46585 20.6729 9.14639 23.3535L9.8535 22.6464C7.56348 20.3564 7.56348 16.6435 9.8535 14.3535L9.1464 13.6464ZM9.14639 23.3535C11.8269 26.034 16.173 26.034 18.8535 23.3535L18.1464 22.6464C15.8564 24.9364 12.1435 24.9364 9.8535 22.6464L9.14639 23.3535ZM21.8965 9.89638L16.8965 14.8964L17.6036 15.6035L22.6036 10.6035L21.8965 9.89638ZM16.8965 15.6035L21.3965 20.1035L22.1036 19.3964L17.6036 14.8964L16.8965 15.6035ZM17.6036 14.8964L13.1036 10.3964L12.3965 11.1035L16.8965 15.6035L17.6036 14.8964Z" fill="black"/>
</svg>

<svg width="32" height="32" fill="none" xmlns="http://www.w3.org/2000/svg"><path d="m13.5 10 .354.354L13.5 10Zm-4 4-.354-.354L9.5 14Zm13 5 .354.354L22.5 19Zm-4 4-.354-.354.354.354Zm4-13 .354-.354L22.5 10Zm-13 13 .354-.354L9.5 23Zm3.646-13.354-4 4 .707.707 4-4-.707-.707Zm9 9-4 4 .707.707 4-4-.707-.707Zm.707.707a6.864 6.864 0 0 0 0-9.707l-.707.707a5.864 5.864 0 0 1 0 8.293l.707.707Zm-9-9a5.864 5.864 0 0 1 8.293 0l.707-.707a6.864 6.864 0 0 0-9.707 0l.707.707Zm-4.707 3.293a6.864 6.864 0 0 0 0 9.707l.707-.707a5.864 5.864 0 0 1 0-8.293l-.707-.707Zm0 9.707a6.864 6.864 0 0 0 9.707 0l-.707-.707a5.864 5.864 0 0 1-8.293 0l-.707.707Zm12.75-13.457-5 5 .708.707 5-5-.707-.707Zm-5 5.707 4.5 4.5.708-.707-4.5-4.5-.707.707Zm.708-.707-4.5-4.5-.707.707 4.5 4.5.707-.707Z" fill="#000"/></svg>
